packages/pepicons/svg/pop/house.svg

<svg style="" width="20" height="20" viewBox="0 0 20 20" fill="none" xmlns="http://www.w3.org/2000/svg">
<g clip-path="url(#clip0)">
<path fill-rule="evenodd" clip-rule="evenodd" d="M1 11C0.0804861 11 -0.351616 9.86349 0.335639 9.25259L9.33564 1.25259C9.71453 0.915803 10.2855 0.915803 10.6644 1.25259L19.6644 9.25259C20.3516 9.86349 19.9195 11 19 11H18V18C18 18.5523 17.5523 19 17 19H3C2.44772 19 2 18.5523 2 18V11H1ZM7 17V12C7 11.4477 7.44772 11 8 11H12C12.5523 11 13 11.4477 13 12V17H16V10C16 9.62477 16.2067 9.29781 16.5124 9.12674L10 3.33795L3.48762 9.12674C3.79334 9.29781 4 9.62477 4 10V17H7ZM9 17V13H11V17H9Z" fill="currentColor"/>
</g>
<defs>
<clipPath id="clip0">
<rect style="" width="20" height="20" fill="white"/>
</clipPath>
</defs>
</svg>

<svg xmlns="http://www.w3.org/2000/svg" style="" width="20" height="20" viewBox="0 0 20 20"><path fill="currentColor" d="M7 17v-5a1 1 0 0 1 1-1h4a1 1 0 0 1 1 1v5h3v-7a1 1 0 0 1 .512-.873L10 3.338 3.488 9.127A1 1 0 0 1 4 10v7h3zm-6-6C.08 11-.352 9.863.336 9.253l9-8a1 1 0 0 1 1.328 0l9 8C20.352 9.863 19.92 11 19 11h-1v7a1 1 0 0 1-1 1H3a1 1 0 0 1-1-1v-7H1zm8 2v4h2v-4H9z"/></svg>
